X: 28928
T: Nae Luck Aboot The Hoose
R: hornpipe
M: 4/4
K: Amajor
e|a>fe>c d>ef>g|a>fe>c B3 e|a>fe>c d>ef>a|e>dc>B A3 e|
a>fe>c d>ef>g|a>fe>c B3 e|a>fe>c d>ef>a|e>dc>B A2 A>B|
c2 c>A d2 d>B|c2 c>A B3 e|c2 c>A d>ef>a|e>dc>B A2 A>B|
(3ccc c>A (3ddd d>B|(3ccc c>A B3 e|(3ccc c>A d>ef>a|e>dc>B A3||

